X: 531
T: Yuer zhao huatai
%%abc-version 2.0
%%abcx-abcm2ps-target-version 5.9.1 (29 Sep 2008)
%%abc-creator hum2abc beta
%%abcx-conversion-date 2013/10/02 07:52:30
%%abc-edited-by Helmut Schaffrath
%%humdrum-veritas 2878626986
%%humdrum-veritas-data 2158796023
%%continueall 1
%%barnumbers 0
L: 1/8
M: 2/4
K: G
A2A d [I:setbarnb 1]| 
c3A | 
A A A d | 
c4 | 
AA2d | 
a2f e | 
d d e B | 
A4 | 
A AE2 | 
Ad2B | 
A2G E | 
A G/ E/D2 | 
A E A A | 
G ED2 | 
A A G E | 
D4 |]  



